X:14501
T:Rondeau de Lagardre 2
C:trad
A:Landes
O:France
Z:S. Piron
M:6/8
L:1/8
Q:1/4=200
K:C
E2 AA2G|A2 c BcB|E2 AA2G|A2cB3:|
|:E2AA2G|E2F GAG|E2AA2G|E2F G3:||
